src/static/logos/api-ai.svg

<?xml version="1.0" encoding="UTF-8" standalone="no"?>
<svg width="256px" height="313px" viewBox="0 0 256 313" version="1.1" xmlns="http://www.w3.org/2000/svg" xmlns:xlink="http://www.w3.org/1999/xlink" preserveAspectRatio="xMidYMid">
    <g>
        <path d="M76.3791,312.096902 L76.3791,258.048902 L9.0071,223.220902 C3.4751,220.360902 0.0001,214.652902 0.0001,208.424902 L0.0001,96.875902 L114.3241,158.539902 C121.6151,162.472902 130.3961,162.478902 137.6921,158.554902 L256.0001,94.933902 L256.0001,206.542902 C256.0001,211.160902 253.4781,215.409902 249.4251,217.622902 L76.3791,312.096902 Z M135.864,140.815902 L256,76.809902 L256,72.009902 C256,68.193902 253.889,64.689902 250.516,62.905902 L135.677,2.17690196 C130.168,-0.736098038 123.572,-0.725098038 118.073,2.20690196 L5.414,62.889902 C2.079,64.685902 0,68.167902 0,71.955902 L0,78.751902 L116.15,140.804902 C122.308,144.094902 129.702,144.098902 135.864,140.815902 Z" fill="#EA6F21"></path>
    </g>
</svg>

<svg width="256" height="313" xmlns="http://www.w3.org/2000/svg" preserveAspectRatio="xMidYMid"><path d="M76.38 312.097v-54.048L9.006 223.22A16.657 16.657 0 010 208.425V96.875l114.324 61.665a24.64 24.64 0 0023.368.015L256 94.934v111.609c0 4.618-2.522 8.867-6.575 11.08L76.38 312.097zm59.484-171.281L256 76.81v-4.8a10.3 10.3 0 00-5.484-9.104L135.677 2.176a18.77 18.77 0 00-17.604.03L5.414 62.89A10.296 10.296 0 000 71.956v6.796l116.15 62.053a20.941 20.941 0 0019.714.01z" fill="#EA6F21"/></svg>
